images_elementary_svg/cmd/sc_stylenewbyexample.svg

<?xml version="1.0" encoding="UTF-8" standalone="no"?>
<svg
   xmlns:dc="http://purl.org/dc/elements/1.1/"
   xmlns:cc="http://creativecommons.org/ns#"
   xmlns:rdf="http://www.w3.org/1999/02/22-rdf-syntax-ns#"
   xmlns:svg="http://www.w3.org/2000/svg"
   xmlns="http://www.w3.org/2000/svg"
   xmlns:xlink="http://www.w3.org/1999/xlink"
   xmlns:sodipodi="http://sodipodi.sourceforge.net/DTD/sodipodi-0.dtd"
   xmlns:inkscape="http://www.inkscape.org/namespaces/inkscape"
   viewBox="0 0 16 16"
   version="1.1"
   id="svg15"
   sodipodi:docname="sc_stylenewbyexample.svg"
   inkscape:version="0.92.3 (2405546, 2018-03-11)"><metadata
   id="metadata21">
  <rdf:RDF>
    <cc:Work
       rdf:about="">
      <dc:format>image/svg+xml</dc:format>
      <dc:type
         rdf:resource="http://purl.org/dc/dcmitype/StillImage" />
    </cc:Work>
  </rdf:RDF>
</metadata>
<defs
   id="defs19">
  <radialGradient
     gradientTransform="matrix(0,0.38528829,-0.41958841,0,32.389496,-16.793007)"
     gradientUnits="userSpaceOnUse"
     xlink:href="#linearGradient3242-7-3-8-0-4-58-06"
     id="radialGradient3259"
     fy="48.605404"
     fx="64.575233"
     r="31.000002"
     cy="48.605404"
     cx="64.575233" />
  <linearGradient
     id="linearGradient3242-7-3-8-0-4-58-06">
    <stop
       offset="0"
       style="stop-color:#cdf87e;stop-opacity:1"
       id="stop3244-5-8-5-6-4-3-8" />
    <stop
       offset="0.26238"
       style="stop-color:#a2e34f;stop-opacity:1"
       id="stop3246-9-5-1-5-3-0-7" />
    <stop
       offset="0.66093999"
       style="stop-color:#68b723;stop-opacity:1"
       id="stop3248-7-2-0-7-5-35-9" />
    <stop
       offset="1"
       style="stop-color:#1d7e0d;stop-opacity:1"
       id="stop3250-8-2-8-5-6-40-4" />
  </linearGradient>
  <radialGradient
     inkscape:collect="always"
     xlink:href="#linearGradient3242-7-3-8-0-4-58-06"
     id="radialGradient877"
     cx="6"
     cy="1.0000002"
     fx="6"
     fy="1.0000002"
     r="8"
     gradientUnits="userSpaceOnUse"
     gradientTransform="matrix(0,2.7499999,-3.25,6.6135727e-8,9.2500007,-15.499998)" />
</defs>
<sodipodi:namedview
   pagecolor="#ffffff"
   bordercolor="#666666"
   borderopacity="1"
   objecttolerance="10"
   gridtolerance="10"
   guidetolerance="10"
   inkscape:pageopacity="0"
   inkscape:pageshadow="2"
   inkscape:window-width="1316"
   inkscape:window-height="732"
   id="namedview17"
   showgrid="true"
   inkscape:zoom="14.75"
   inkscape:cx="-4.6688419"
   inkscape:cy="3.7483426"
   inkscape:window-x="50"
   inkscape:window-y="0"
   inkscape:window-maximized="1"
   inkscape:current-layer="svg15">
  <inkscape:grid
     type="xygrid"
     id="grid861" />
</sodipodi:namedview>
<linearGradient
   id="a"
   gradientTransform="matrix(1,0,0,-1,0,16)"
   gradientUnits="userSpaceOnUse"
   x1="8"
   x2="8"
   y1="15"
   y2="1">
  <stop
     offset="0"
     stop-color="#fff"
     id="stop2" />
  <stop
     offset="1"
     stop-color="#fff"
     stop-opacity=".235294"
     id="stop4" />
  <stop
     offset="1"
     stop-color="#fff"
     stop-opacity=".156863"
     id="stop6" />
  <stop
     offset="1"
     stop-color="#fff"
     id="stop8" />
</linearGradient>



     /&gt;
 <path
   d="m5.5 5.5v-4.98535746h5v4.98535746h4.985357v5h-4.985357v4.985357h-5v-4.985357h-4.985357v-5z"
   fill="#9cde4a"
   stroke="#5ca12a"
   stroke-linecap="round"
   stroke-linejoin="round"
   stroke-width="1.029286"
   id="path11"
   style="stroke:#0f5a00;stroke-opacity:0.5;fill-opacity:1;fill:url(#radialGradient877)" />
<path
   style="fill:url(#a)"
   d="M 6 1 L 6 2 L 7 2 L 9 2 L 10 2 L 10 1 L 6 1 z M 1 6 L 1 6.9863281 L 6 6.9863281 L 6 6 L 5 6 L 1 6 z M 10 6 L 10 6.9863281 L 15 6.9863281 L 15 6 L 10 6 z M 6 14 L 6 15 L 10 15 L 10 14 L 9 14 L 7 14 L 6 14 z "
   id="path13" />
</svg>

<svg xmlns="http://www.w3.org/2000/svg" xmlns:xlink="http://www.w3.org/1999/xlink" viewBox="0 0 16 16"><defs><linearGradient id="a"><stop offset="0" stop-color="#cdf87e"/><stop offset=".262" stop-color="#a2e34f"/><stop offset=".661" stop-color="#68b723"/><stop offset="1" stop-color="#1d7e0d"/></linearGradient><radialGradient xlink:href="#a" id="b" cx="6" cy="1" fx="6" fy="1" r="8" gradientUnits="userSpaceOnUse" gradientTransform="matrix(0 2.75 -3.25 0 9.25 -15.5)"/></defs><linearGradient id="c" gradientTransform="matrix(1 0 0 -1 0 16)" gradientUnits="userSpaceOnUse" x1="8" x2="8" y1="15" y2="1"><stop offset="0" stop-color="#fff"/><stop offset="1" stop-color="#fff" stop-opacity=".235"/><stop offset="1" stop-color="#fff" stop-opacity=".157"/><stop offset="1" stop-color="#fff"/></linearGradient>/&gt;<path d="M5.5 5.5V.515h5V5.5h4.985v5H10.5v4.985h-5V10.5H.515v-5z" fill="url(#b)" stroke="#0f5a00" stroke-linecap="round" stroke-linejoin="round" stroke-width="1.029" stroke-opacity=".5"/><path d="M6 1v1h4V1H6zM1 6v.986h5V6H1zm9 0v.986h5V6h-5zm-4 8v1h4v-1H6z" fill="url(#c)"/></svg>
